src/pos-icons/format-text-rotation-vertical.svg

<svg height="24" viewBox="0 0 24 24" width="24" xmlns="http://www.w3.org/2000/svg"><path d="m15.75 5h-1.5l-4.75 11h2.1l.9-2.2h5l.9 2.2h2.1zm-2.62 7 1.87-5 1.87 5zm-7.13 7.75 3-3h-2v-12.5h-2v12.5h-2z"/></svg>

<?xml version="1.0" encoding="UTF-8"?><!DOCTYPE svg PUBLIC "-//W3C//DTD SVG 1.1//EN" "http://www.w3.org/Graphics/SVG/1.1/DTD/svg11.dtd"><svg xmlns="http://www.w3.org/2000/svg" xmlns:xlink="http://www.w3.org/1999/xlink" version="1.1" id="mdi-format-text-rotation-vertical" width="24" height="24" viewBox="0 0 24 24"><path d="M15.75 5H14.25L9.5 16H11.6L12.5 13.8H17.5L18.4 16H20.5L15.75 5M13.13 12L15 7L16.87 12H13.13M6 19.75L9 16.75H7V4.25H5V16.75H3L6 19.75Z" /></svg>
